icon-themes/breeze_svg/cmd/lc_glueescapedirectionbottom.svg

<svg viewBox="0 0 24 24" xmlns="http://www.w3.org/2000/svg"><path d="m4 4v16h16v-16zm1 1h14v14h-14zm6 6v4h-2l3 3 3-3h-2v-4z" fill="#4d4d4d"/><path d="m12 6c-1.656859 0-3 1.3431-3 3s1.343141 3 3 3 3-1.3431 3-3-1.343141-3-3-3zm0 2c.552285 0 1 .4477 1 1s-.447715 1-1 1-1-.4477-1-1 .447715-1 1-1z" fill="#1d99f3"/></svg>

<svg xmlns="http://www.w3.org/2000/svg" viewBox="0 0 24 24">
 <path 
     style="fill:#4d4d4d" 
     d="M 4 4 L 4 20 L 20 20 L 20 4 L 4 4 z M 5 5 L 19 5 L 19 19 L 5 19 L 5 5 z M 11 11 L 11 15 L 9 15 L 12 18 L 15 15 L 13 15 L 13 11 L 11 11 z "
     />
 <path 
     style="fill:#1d99f3" 
     d="M 12 6 C 10.343141 6 9 7.3431 9 9 C 9 10.6569 10.343141 12 12 12 C 13.656859 12 15 10.6569 15 9 C 15 7.3431 13.656859 6 12 6 z M 12 8 C 12.552285 8 13 8.4477 13 9 C 13 9.5523 12.552285 10 12 10 C 11.447715 10 11 9.5523 11 9 C 11 8.4477 11.447715 8 12 8 z "
     />
 </svg>
